out/images/arrowAbout.svg

<svg fill="none" height="24" viewBox="0 0 46 24" width="46" xmlns="http://www.w3.org/2000/svg"><path d="m45.0607 13.0607c.5857-.5858.5857-1.5356 0-2.1214l-9.546-9.5459c-.5858-.585789-1.5355-.585789-2.1213 0-.5858.58579-.5858 1.53553 0 2.12132l8.4853 8.48528-8.4853 8.4853c-.5858.5858-.5858 1.5355 0 2.1213s1.5355.5858 2.1213 0zm-45.0607.4393h44v-3h-44z" fill="#fff"/></svg>

<svg width="46" height="24" viewBox="0 0 46 24" fill="none" xmlns="http://www.w3.org/2000/svg">
<path d="M45.0607 13.0607C45.6464 12.4749 45.6464 11.5251 45.0607 10.9393L35.5147 1.3934C34.9289 0.807611 33.9792 0.807611 33.3934 1.3934C32.8076 1.97919 32.8076 2.92893 33.3934 3.51472L41.8787 12L33.3934 20.4853C32.8076 21.0711 32.8076 22.0208 33.3934 22.6066C33.9792 23.1924 34.9289 23.1924 35.5147 22.6066L45.0607 13.0607ZM0 13.5H44V10.5H0V13.5Z" fill="white"/>
</svg>
